X:3117
T:Cloon Reel, The
R:reel
H:Also played in C, #481
D:Dervish: Playing with Fire
Z:id:hn-reel-680
M:C|
K:D
|:e|fedB ~A3G|FADF ABde|fedB ~A3G|FADE FEEe|
fedB ~A3G|FADF ~A3B|d2fd adfd|B2AF FEE:|
|:e|d2fd adfg|a2ba afef|d2fd adfd|cAeA fAeA|
d2fd adfg|~a3b afea|bafd egfe|dBAF FEE:|


